resources/icons/icons_sublayout-tree.svg

<?xml version="1.0" encoding="utf-8"?>
<svg xmlns="http://www.w3.org/2000/svg" viewBox="0 0 2048 2048" width="2048" height="2048">
  <path d="M 0 0 L 2048 0 L 2048 2048 L 0 2048 L 0 0 Z M 640 1920 L 628.762 778.678 L 122.381 784.297 L 128 1920 L 640 1920 Z M 640 640 L 640 128 L 128 128 L 128 640 L 640 640 Z M 1931.8 1920.56 L 1931.8 756.762 L 768 768 L 773.619 1926.179 L 1931.8 1920.56 Z M 1280 640 L 1280 128 L 768 128 L 768 640 L 1280 640 Z M 1920 640 L 1920 128 L 1408 128 L 1408 640 L 1920 640 Z"/>
</svg>

<svg xmlns="http://www.w3.org/2000/svg" viewBox="0 0 2048 2048" width="2048" height="2048">
  <path d="M0 0h2048v2048H0V0zm640 1920v-512H128v512h512zm0-640V768H128v512h512zm0-640V128H128v512h512zm640 1280v-512H768v512h512zm0-640V768H768v512h512zm0-640V128H768v512h512zm640 1280v-512h-512v512h512zm0-640V768h-512v512h512zm0-640V128h-512v512h512z" />
</svg>
